!!!OTL: Aue verbum incarnatum
**kern
*staff1
=1-
*clefC3
*k[b-]
0f
=2
1f
1d
=3
2c\
2d\
2e\
2f\
=4
1g
1c
=5
0g
=6
0c
!!linebreak:original
=7
1.f
2e\
=8
2d\
2c\
2B-/
2A/
=9
1.d
4c\
4B-/
=10
2A/
4A/
4B-/
2c\
2d\
=11
2e\
2f\
1c
=12
0f
==
*-
!!title: @{OTL}, @{GTL}, ed. @{ENC}
!!!pag:
!!!GTL: Hymnbook D
!!!EFL: 
!!!YEM: Creative Commons CC/BY/NC/SA 4.0
!!!ENC: Marcin Konik
!!!END: 2015-0m-dd
!!!EED: Marcin Konik
!!!EEV: 
!!!ONB: Encoded in vim by Marcin Konik
!!!CharacterEncoding: utf-8
!!!RDF**kern: l=long note in original notation
!!!RDF**kern: i=editorial accidental
!!muse2ps: z14jc180F
!!!COM: Anonim
!!!CDT: [?]
!!!TXO: Polish
!!!ODT: 
!!!GTL: Hymnbook D
!!!ARL: Opactwo św. Wojciecha, Staniątki 
!!!voices:	1
